svg/other/drawer_2_fill.svg

<?xml version="1.0" encoding="UTF-8"?>
<svg width="24px" height="24px" viewBox="0 0 24 24" version="1.1" xmlns="http://www.w3.org/2000/svg" xmlns:xlink="http://www.w3.org/1999/xlink">
    <title>drawer_2_fill</title>
    <g id="Icon" stroke="none" stroke-width="1" fill="none" fill-rule="evenodd">
        <g id="Business" transform="translate(-336.000000, -528.000000)">
            <g id="drawer_2_fill" transform="translate(336.000000, 528.000000)">
                <path d="M24,0 L24,24 L0,24 L0,0 L24,0 Z M12.5935,23.2578 L12.5819,23.2595 L12.5109,23.295 L12.4919,23.2987 L12.4767,23.295 L12.4057,23.2595 C12.3958,23.2564 12.387,23.259 12.3821,23.2649 L12.378,23.2758 L12.3609,23.7031 L12.3659,23.7235 L12.3769,23.7357 L12.4805,23.8097 L12.4953,23.8136 L12.5071,23.8097 L12.6107,23.7357 L12.6233,23.7197 L12.6267,23.7031 L12.6096,23.2758 C12.6076,23.2657 12.601,23.2593 12.5935,23.2578 Z M12.8584,23.1453 L12.8445,23.1473 L12.6598,23.2397 L12.6499,23.2499 L12.6472,23.2611 L12.6651,23.6906 L12.6699,23.7034 L12.6784,23.7105 L12.8793,23.8032 C12.8914,23.8069 12.9022,23.803 12.9078,23.7952 L12.9118,23.7812 L12.8777,23.1665 C12.8753,23.1546 12.8674,23.147 12.8584,23.1453 Z M12.143,23.1473 C12.1332,23.1424 12.1222,23.1453 12.1156,23.1526 L12.1099,23.1665 L12.0758,23.7812 C12.0751,23.7927 12.0828,23.8019 12.0926,23.8046 L12.1083,23.8032 L12.3092,23.7105 L12.3186,23.7024 L12.3225,23.6906 L12.3404,23.2611 L12.3372,23.2485 L12.3278,23.2397 L12.143,23.1473 Z" id="MingCute" fill-rule="nonzero"></path>
                <path d="M20,12 L20,18 C20,19.0543909 19.18415,19.9181678 18.1492661,19.9945144 L18,20 L16.618,20 L16.8944,20.5528 C17.1414,21.0468 16.9412,21.6474 16.4472,21.8944 C15.9884857,22.1237571 15.4378561,21.9675184 15.1637731,21.5485043 L15.1056,21.4472 L14.382,20 L9.61803,20 L8.89443,21.4472 C8.64744,21.9412 8.04676,22.1414 7.55279,21.8944 C7.09409429,21.6650429 6.88868301,21.1307959 7.05943285,20.6601211 L7.10557,20.5528 L7.38197,20 L6,20 C4.94563773,20 4.08183483,19.18415 4.00548573,18.1492661 L4,18 L4,12 L20,12 Z M13,15 L11,15 C10.4477,15 10,15.4477 10,16 C10,16.5523 10.4477,17 11,17 L13,17 C13.5523,17 14,16.5523 14,16 C14,15.4477 13.5523,15 13,15 Z M18,2 C19.0543909,2 19.9181678,2.81587733 19.9945144,3.85073759 L20,4 L20,10 L4,10 L4,4 C4,2.94563773 4.81587733,2.08183483 5.85073759,2.00548573 L6,2 L18,2 Z M13,5 L11,5 C10.4477,5 10,5.44772 10,6 C10,6.51283143 10.386027,6.93550653 10.8833761,6.9932722 L11,7 L13,7 C13.5523,7 14,6.55228 14,6 C14,5.48716857 13.613973,5.06449347 13.1166239,5.0067278 L13,5 Z" id="形状" fill="#09244B"></path>
            </g>
        </g>
    </g>
</svg>

<svg xmlns="http://www.w3.org/2000/svg" width="24" height="24"><g fill="none" fill-rule="evenodd"><path d="M24 0v24H0V0h24ZM12.594 23.258l-.012.002-.071.035-.02.004-.014-.004-.071-.036c-.01-.003-.019 0-.024.006l-.004.01-.017.428.005.02.01.013.104.074.015.004.012-.004.104-.074.012-.016.004-.017-.017-.427c-.002-.01-.009-.017-.016-.018Zm.264-.113-.014.002-.184.093-.01.01-.003.011.018.43.005.012.008.008.201.092c.012.004.023 0 .029-.008l.004-.014-.034-.614c-.003-.012-.01-.02-.02-.022Zm-.715.002a.023.023 0 0 0-.027.006l-.006.014-.034.614c0 .012.007.02.017.024l.015-.002.201-.093.01-.008.003-.011.018-.43-.003-.012-.01-.01-.184-.092Z"/><path fill="#09244B" d="M20 12v6a2 2 0 0 1-1.85 1.995L18 20h-1.382l.276.553a1 1 0 0 1-1.73.996l-.058-.102L14.382 20H9.618l-.724 1.447a1 1 0 0 1-1.835-.787l.047-.107.276-.553H6a2 2 0 0 1-1.995-1.85L4 18v-6h16Zm-7 3h-2a1 1 0 1 0 0 2h2a1 1 0 1 0 0-2Zm5-13a2 2 0 0 1 1.995 1.85L20 4v6H4V4a2 2 0 0 1 1.85-1.995L6 2h12Zm-5 3h-2a1 1 0 0 0-.117 1.993L11 7h2a1 1 0 0 0 .117-1.993L13 5Z"/></g></svg>
